X:280
T:B280-  Let the Critics Adore
Q:1/4=120
L:1/4
M:3/4
K:F
f/g/|agf/c/|d3/2 c/d|cfA|G3/2 c/ A/B/|\
cFf3/4g/4|afc|d2c|d/e/fA|\
G3/2 B/ A/B/|ccf3/4g/4|afc|d3/2 d/ d/c/|\
d/e/fA|G2A3/4B/4|ccA3/4B/4|cc (3 d/e/f/|\
f3/2 e/ f/g/|ad(3 e/f/g/|g2A3/4B/4|cc(3 d/e/f/|\
fdf3/4g/4|adg|e2e3/4f/4|gg (3g/a/b/|\
a2g/a/|bdg3/4f/4|e2d/e/|fcd3/4e/4|\
d2b3/4a/4|d3/2 g/e|f2|]

